src/assets/icons/search.svg

<?xml version="1.0" standalone="no"?><!DOCTYPE svg PUBLIC "-//W3C//DTD SVG 1.1//EN" "http://www.w3.org/Graphics/SVG/1.1/DTD/svg11.dtd"><svg t="1732764119561" class="icon" viewBox="0 0 1024 1024" version="1.1" xmlns="http://www.w3.org/2000/svg" p-id="8432" xmlns:xlink="http://www.w3.org/1999/xlink" width="32" height="32"><path d="M970.961455 924.672 828.648727 782.359273C906.263273 699.182545 954.181818 587.938909 954.181818 465.454545 954.181818 208.779636 745.402182 0 488.727273 0 232.075636 0 23.272727 208.779636 23.272727 465.454545 23.272727 557.730909 50.338909 647.051636 101.585455 723.688727 112.290909 739.770182 133.957818 743.982545 149.992727 733.323636 166.027636 722.618182 170.333091 700.951273 159.627636 684.916364 116.107636 619.776 93.090909 543.906909 93.090909 465.454545 93.090909 247.296 270.568727 69.818182 488.727273 69.818182 706.885818 69.818182 884.363636 247.296 884.363636 465.454545 884.363636 683.613091 706.885818 861.090909 488.727273 861.090909 409.995636 861.090909 333.940364 837.957818 268.730182 794.228364 252.741818 783.546182 231.051636 787.758545 220.276364 803.770182 209.547636 819.781818 213.829818 841.472 229.818182 852.224 306.571636 903.703273 396.101818 930.909091 488.727273 930.909091 580.887273 930.909091 666.647273 903.633455 739.002182 857.250909L888.692364 1006.941091C900.049455 1018.298182 914.944 1024 929.815273 1024 944.709818 1024 959.604364 1018.298182 970.961455 1006.941091 993.698909 984.226909 993.698909 947.409455 970.961455 924.672ZM247.552 396.695273C273.501091 296.064 356.910545 222.685091 460.055273 209.768727 479.185455 207.371636 492.753455 189.917091 490.356364 170.786909 487.959273 151.656727 470.365091 138.065455 451.374545 140.485818 319.627636 156.986182 213.108364 250.728727 179.968 379.287273 175.150545 397.952 186.368 416.989091 205.056 421.783273 207.965091 422.551273 210.897455 422.900364 213.783273 422.900364 229.329455 422.900364 243.502545 412.450909 247.552 396.695273Z" fill="#373838" p-id="8433"></path></svg>

<svg xmlns="http://www.w3.org/2000/svg" width="32" height="32" class="icon" viewBox="0 0 1024 1024"><path fill="#373838" d="M970.961 924.672 828.65 782.359c77.614-83.176 125.533-194.42 125.533-316.904C954.182 208.78 745.402 0 488.727 0 232.076 0 23.273 208.78 23.273 465.455c0 92.276 27.066 181.597 78.312 258.234 10.706 16.081 32.373 20.294 48.408 9.635 16.035-10.706 20.34-32.373 9.635-48.408-43.52-65.14-66.537-141.01-66.537-219.461 0-218.159 177.478-395.637 395.636-395.637s395.637 177.478 395.637 395.637c0 218.158-177.478 395.636-395.637 395.636-78.731 0-154.787-23.133-219.997-66.863-15.988-10.682-37.678-6.47-48.454 9.542-10.728 16.012-6.446 37.702 9.542 48.454 76.754 51.48 166.284 78.685 258.91 78.685 92.16 0 177.92-27.276 250.274-73.658l149.69 149.69A58.02 58.02 0 0 0 929.815 1024c14.895 0 29.79-5.702 41.146-17.059 22.738-22.714 22.738-59.532 0-82.269M247.552 396.695c25.95-100.631 109.359-174.01 212.503-186.926 19.13-2.397 32.698-19.852 30.301-38.982s-19.99-32.722-38.981-30.301c-131.747 16.5-238.267 110.243-271.407 238.801-4.817 18.665 6.4 37.702 25.088 42.496a34 34 0 0 0 8.727 1.117c15.546 0 29.72-10.45 33.769-26.205"/></svg>
